assets/images/footer-top.svg

<svg fill="none" height="127" viewBox="0 0 3024 127" width="3024" xmlns="http://www.w3.org/2000/svg"><path d="m-702.389 99.0788c-18.863 0-96.192 14.3032-96.192 14.3032v.01 13.596h4712.001v-123.95492s-16.97-2.044799-26.4-2.044799c-9.44 0-11.33 0-22.64 4.089589-11.31 4.08958-50.93-2.04479-50.93-2.04479l-11.31 2.04479s-37.72 4.08959-60.35 4.08959c-16.08 0-57.82 2.06194-82.03 3.25764-9.88.4882-16.84.8319-17.94.8319h-5.66c-1.54 0-5.31.3024-10.29.7016-13.33 1.069-35.31 2.832-46.3 1.3432-9.03-1.2241-30.91 6.3429-49.03 12.6136-12.15 4.2035-22.62 7.8244-26.41 7.8244-7.49 0-20.9 5.1415-31.78 9.3086l-.02.0063c-2.82 1.0832-5.48 2.1004-7.81 2.944-3.56 1.286-5.07 1.9654-5.52 2.2926-.3.0523-.62.1119-.99.1777-5.79 1.047-20.28 3.6641-44.42 3.6641-21.05 0-43.02 5.9655-58.86 10.2677-6.87 1.8651-12.59 3.4175-16.58 4.0359-9.94 1.5396-23.09-6.1946-38.64-15.3429v-.002c-5.11-3.0013-10.47-6.1547-16.06-9.1827-22.63-12.2588-103.73-6.1344-128.26-4.0896-24.51 2.0448-131.11 1.1974-131.11 1.1974s-89.56 15.151-138.6 11.0614c-49.04-4.0895-132.03-6.1244-192.38 2.0448-60.36 8.1693-203.7 47.0009-203.7 47.0009s-32.07-2.0452-50.93-2.0452c-17.86 0-88.13 12.8232-95.56 14.1862-7.42-1.363-77.69-14.1862-95.55-14.1862-18.87 0-50.93 2.0452-50.93 2.0452s-143.34-38.8316-203.7-47.0009c-60.36-8.1692-143.35-6.1343-192.39-2.0448-49.04 4.0896-92.41 8.1792-92.41 8.1792s-152.78-18.3932-177.3-20.438-105.63-8.1692-128.25 4.0896c-5.59 3.0282-10.96 6.1817-16.06 9.1831v.0013c-15.55 9.1484-28.7 16.8828-38.64 15.3432-4-.6184-9.71-2.1708-16.58-4.0359-15.84-4.3022-37.81-10.2677-58.86-10.2677-24.14 0-38.63-2.617-44.42-3.6641-.37-.0658-.7-.1254-.99-.1778-.46-.3272-1.96-1.0066-5.52-2.2925-2.34-.8453-5-1.8648-7.83-2.9504-10.88-4.1671-24.3-9.3085-31.78-9.3085-3.79 0-14.26-3.6209-26.41-7.8243-18.13-6.2708-40-13.8378-49.04-12.6137-10.98 1.4888-32.97-.2742-46.29-1.3431-4.98-.3993-8.75-.7017-10.29-.7017h-5.66c-1.1 0-8.06-.3437-17.94-.8319v-.0001c-24.21-1.1956-65.957-3.25754-82.03-3.25754-22.637 0-60.353-4.08959-60.353-4.08959l-11.314-2.04479s-39.613 6.13437-50.927 2.04479c-11.314-4.089589-13.201-4.089589-22.637-4.089589-9.065 0-25.081 1.887339-26.325 2.035579-1.244-.14824-17.26-2.035579-26.325-2.035579-9.436 0-11.323 0-22.637 4.089589-11.314 4.08958-50.926-2.04479-50.926-2.04479l-11.314 2.04479s-37.716 4.08959-60.353 4.08959c-16.074 0-57.82 2.06194-82.027 3.25754-9.884.4883-16.845.832-17.939.832h-5.662c-1.539 0-5.31.3024-10.288.7017-13.329 1.0689-35.314 2.8319-46.299 1.3431-9.034-1.2241-30.909 6.3429-49.036 12.6137-12.152 4.2034-22.619 7.8243-26.406 7.8243-7.486 0-20.904 5.1414-31.78 9.3085-2.833 1.0856-5.494 2.1051-7.832 2.9504-3.558 1.286-5.065 1.9654-5.518 2.2925-.295.0524-.625.112-.989.1778-5.796 1.0471-20.28 3.6641-44.42 3.6641-21.051 0-43.02 5.9656-58.864 10.2678-6.868 1.865-12.585 3.4174-16.577 4.0358-9.94 1.5396-23.089-6.1948-38.643-15.3433-5.103-3.0018-10.465-6.1557-16.058-9.1843-22.628-12.2588-118.0043-4.9539-142.5285-2.9091-24.515 2.0448-163.0205 19.2575-163.0205 19.2575s-43.378-4.0896-92.417-8.1792c-49.039-4.0895-132.029-6.1244-192.382 2.0448-60.363 8.1693-203.706 47.0009-203.706 47.0009s-32.064-2.0452-50.926-2.0452z" fill="#eaebea"/></svg>

<svg width="3024" height="127" viewBox="0 0 3024 127" fill="none" xmlns="http://www.w3.org/2000/svg" style="background-color:#FFFFFF">
    <path d="M-702.389 99.0788C-721.252 99.0788 -798.581 113.382 -798.581 113.382V113.392V126.988H3913.42V3.03308C3913.42 3.03308 3896.45 0.988281 3887.02 0.988281C3877.58 0.988281 3875.69 0.988281 3864.38 5.07787C3853.07 9.16745 3813.45 3.03308 3813.45 3.03308L3802.14 5.07787C3802.14 5.07787 3764.42 9.16746 3741.79 9.16746C3725.71 9.16746 3683.97 11.2294 3659.76 12.4251C3649.88 12.9133 3642.92 13.257 3641.82 13.257H3636.16C3634.62 13.257 3630.85 13.5594 3625.87 13.9586C3612.54 15.0276 3590.56 16.7906 3579.57 15.3018C3570.54 14.0777 3548.66 21.6447 3530.54 27.9154C3518.39 32.1189 3507.92 35.7398 3504.13 35.7398C3496.64 35.7398 3483.23 40.8813 3472.35 45.0484L3472.33 45.0547C3469.51 46.1379 3466.85 47.1551 3464.52 47.9987C3460.96 49.2847 3459.45 49.9641 3459 50.2913C3458.7 50.3436 3458.38 50.4032 3458.01 50.469C3452.22 51.516 3437.73 54.1331 3413.59 54.1331C3392.54 54.1331 3370.57 60.0986 3354.73 64.4008C3347.86 66.2659 3342.14 67.8183 3338.15 68.4367C3328.21 69.9763 3315.06 62.2421 3299.51 53.0938L3299.51 53.0918C3294.4 50.0905 3289.04 46.9371 3283.45 43.9091C3260.82 31.6503 3179.72 37.7747 3155.19 39.8195C3130.68 41.8643 3024.08 41.0169 3024.08 41.0169C3024.08 41.0169 2934.52 56.1679 2885.48 52.0783C2836.44 47.9888 2753.45 45.9539 2693.1 54.1231C2632.74 62.2924 2489.4 101.124 2489.4 101.124C2489.4 101.124 2457.33 99.0788 2438.47 99.0788C2420.61 99.0788 2350.34 111.902 2342.91 113.265C2335.49 111.902 2265.22 99.0788 2247.36 99.0788C2228.49 99.0788 2196.43 101.124 2196.43 101.124C2196.43 101.124 2053.09 62.2924 1992.73 54.1231C1932.37 45.9539 1849.38 47.9888 1800.34 52.0783C1751.3 56.1679 1707.93 60.2575 1707.93 60.2575C1707.93 60.2575 1555.15 41.8643 1530.63 39.8195C1506.11 37.7747 1425 31.6503 1402.38 43.9091C1396.79 46.9373 1391.42 50.0908 1386.32 53.0922L1386.32 53.0935C1370.77 62.2419 1357.62 69.9763 1347.68 68.4367C1343.68 67.8183 1337.97 66.2659 1331.1 64.4008C1315.26 60.0986 1293.29 54.1331 1272.24 54.1331C1248.1 54.1331 1233.61 51.5161 1227.82 50.469C1227.45 50.4032 1227.12 50.3436 1226.83 50.2912C1226.37 49.964 1224.87 49.2846 1221.31 47.9987C1218.97 47.1534 1216.31 46.1339 1213.48 45.0483C1202.6 40.8812 1189.18 35.7398 1181.7 35.7398C1177.91 35.7398 1167.44 32.1189 1155.29 27.9155C1137.16 21.6447 1115.29 14.0777 1106.25 15.3018C1095.27 16.7906 1073.28 15.0276 1059.96 13.9587C1054.98 13.5594 1051.21 13.257 1049.67 13.257H1044.01C1042.91 13.257 1035.95 12.9133 1026.07 12.4251L1026.07 12.425C1001.86 11.2294 960.113 9.16746 944.04 9.16746C921.403 9.16746 883.687 5.07787 883.687 5.07787L872.373 3.03308C872.373 3.03308 832.76 9.16745 821.446 5.07787C810.132 0.988281 808.245 0.988281 798.809 0.988281C789.744 0.988281 773.728 2.87562 772.484 3.02386C771.24 2.87562 755.224 0.988281 746.159 0.988281C736.723 0.988281 734.836 0.988281 723.522 5.07787C712.208 9.16745 672.596 3.03308 672.596 3.03308L661.282 5.07787C661.282 5.07787 623.566 9.16746 600.929 9.16746C584.855 9.16746 543.109 11.2294 518.902 12.425C509.018 12.9133 502.057 13.257 500.963 13.257H495.301C493.762 13.257 489.991 13.5594 485.013 13.9587C471.684 15.0276 449.699 16.7906 438.714 15.3018C429.68 14.0777 407.805 21.6447 389.678 27.9155C377.526 32.1189 367.059 35.7398 363.272 35.7398C355.786 35.7398 342.368 40.8812 331.492 45.0483C328.659 46.1339 325.998 47.1534 323.66 47.9987C320.102 49.2847 318.595 49.9641 318.142 50.2912C317.847 50.3436 317.517 50.4032 317.153 50.469C311.357 51.5161 296.873 54.1331 272.733 54.1331C251.682 54.1331 229.713 60.0987 213.869 64.4009C207.001 66.2659 201.284 67.8183 197.292 68.4367C187.352 69.9763 174.203 62.2419 158.649 53.0934C153.546 50.0916 148.184 46.9377 142.591 43.9091C119.963 31.6503 24.5867 38.9552 0.0625 41C-24.4525 43.0448 -162.958 60.2575 -162.958 60.2575C-162.958 60.2575 -206.336 56.1679 -255.375 52.0783C-304.414 47.9888 -387.404 45.9539 -447.757 54.1231C-508.12 62.2924 -651.463 101.124 -651.463 101.124C-651.463 101.124 -683.527 99.0788 -702.389 99.0788Z" fill="#EAEBEA"/>
</svg>
